images/social/wechat.svg

<svg height="30" viewBox="0 0 30 30" width="30" xmlns="http://www.w3.org/2000/svg"><g fill="#fff" transform="translate(5 7)"><path d="m7.64894083-.29946972c3.75102927 0 6.96164497 2.39136144 7.69396167 5.67368062l.0470464.23042572-1.1798978.2187262c-.520978-2.81036646-3.2818436-4.92283254-6.56111027-4.92283254-3.68614931 0-6.64894083 2.64894885-6.64894083 5.88107481 0 1.41290003.56553615 2.75012035 1.58342686 3.80817041.28216089.2932931.27821995.6371397.14564137 1.0477318l-.06123283.171765c-.01140019.0291402-.02357545.0589826-.03679233.0901964l-.09393332.2090889-.22710975.4694424.41584174-.1319687.57513025-.1911145.4636893-.1451882c.04387787-.0127509.0854479-.0244012.12494999-.0349775l.21411627-.0507811c.25751879-.0510887.41339455-.0368304.59044952.0292064l.06762827.0271644c.89218819.3813838 1.87282504.5823391 2.88713549.5823391.41705433 0 .82884143-.0339476 1.2318273-.1007594l.30053396-.056254.24526386 1.1746683c-.57858574.1208053-1.17386108.1823451-1.77762512.1823451-1.17650544 0-2.31759192-.2338352-3.35881177-.6789255.00745276.0031858.0035376.0085323-.01069045.0160579l-.13007747.0486359-.88738888.2838198-.57849755.1898847-.30373717.0919429c-.59617195.1695065-.81343485.1467843-1.11208845-.051738-.39878234-.2650801-.42362794-.6609308-.28355963-1.1135762l.05250318-.1541567.06681288-.1642093.15025261-.3231965.18491819-.3827561.10575999-.2382123.03966369-.1102505-.07646694-.0831868c-1.02735059-1.1625643-1.6291803-2.59065528-1.70039593-4.10684754l-.00713713-.30436057c0-3.9266716 3.5281312-7.08107481 7.84894083-7.08107481z"/><path d="m14.5 4.99999995c-3.3565058 0-6.1 2.48682395-6.1 5.58544225l.00713386.2721631c.06167304 1.1743837.52122207 2.2804796 1.30067876 3.1850694l.02718738.0303253-.06965458.1607025-.20742771.4375875-.07620022.1726463-.05449774.1444073c-.0079702.0234887-.01555796.0471314-.02302422.0715933-.12203952.3998409-.09982149.7587263.27081298 1.0085051.23147012.1559929.45346689.1645557.76731169.1001422l.222483-.0527644.1735259-.0494999.9933872-.3256368.1904533-.0525635c.0325506-.011055.0356349-.0232576-.0302568-.0518141.8087082.3504822 1.6948147.5345788 2.6080872.5345788 3.3565058 0 6.1-2.4868239 6.1-5.5854421 0-3.0986183-2.7434942-5.58544225-6.1-5.58544225zm0 1.2c2.7186264 0 4.9 1.97729308 4.9 4.38544225 0 2.408149-2.1813736 4.3854421-4.9 4.3854421-.6553475 0-1.2913579-.1151176-1.8810831-.3350036l-.249827-.100621c-.1763543-.0764295-.3010907-.1050316-.5101719-.0709425l-.1747501.0375538c-.0324689.0082955-.0667869.0176286-.1032193.0280283l-.2460939.0754305-.6148547.2046702.0491413-.1041305c.0631967-.1384888.1015626-.2352018.1364861-.3448555.1143162-.3589332.1177835-.6656421-.1418252-.9392274-.7484765-.7887724-1.1638022-1.7844069-1.1638022-2.8363444 0-2.40814917 2.1813736-4.38544225 4.9-4.38544225z" transform="matrix(-1 0 0 1 29 0)"/><circle cx="5.5" cy="5" r="1"/><circle cx="12.75" cy="9.55" r="1"/><circle cx="15.75" cy="9.55" r="1"/><circle cx="9.5" cy="5" r="1"/></g></svg>

<?xml version="1.0" encoding="UTF-8"?>
<svg width="30px" height="30px" viewBox="0 0 30 30" version="1.1" xmlns="http://www.w3.org/2000/svg" xmlns:xlink="http://www.w3.org/1999/xlink">
    <title>wechat</title>
    <g id="wechat" stroke="none" stroke-width="1" fill="none" fill-rule="evenodd">
        <g id="wechat-2" transform="translate(5.000000, 7.000000)" fill="#FFFFFF" fill-rule="nonzero">
            <path d="M7.64894083,-0.299469723 C11.3999701,-0.299469723 14.6105858,2.09189172 15.3429025,5.3742109 L15.3899489,5.60463662 L14.2100511,5.82336282 C13.6890731,3.01299636 10.9282075,0.900530277 7.64894083,0.900530277 C3.96279152,0.900530277 1,3.54947913 1,6.78160509 C1,8.19450512 1.56553615,9.53172544 2.58342686,10.5897755 C2.86558775,10.8830686 2.86164681,11.2269152 2.72906823,11.6375073 L2.6678354,11.8092723 C2.65643521,11.8384125 2.64425995,11.8682549 2.63104307,11.8994687 L2.53710975,12.1085576 L2.31,12.578 L2.72584174,12.4460313 L3.30097199,12.2549168 L3.76466129,12.1097286 C3.80853916,12.0969777 3.85010919,12.0853274 3.88961128,12.0747511 L4.10372755,12.02397 C4.36124634,11.9728813 4.5171221,11.9871396 4.69417707,12.0531764 L4.76180534,12.0803408 C5.65399353,12.4617246 6.63463038,12.6626799 7.64894083,12.6626799 C8.06599516,12.6626799 8.47778226,12.6287323 8.88076813,12.5619205 L9.18130209,12.5056665 L9.42656595,13.6803348 C8.84798021,13.8011401 8.25270487,13.8626799 7.64894083,13.8626799 C6.47243539,13.8626799 5.33134891,13.6288447 4.29012906,13.1837544 C4.29758182,13.1869402 4.29366666,13.1922867 4.27943861,13.1998123 L4.14936114,13.2484482 L3.26197226,13.532268 L2.68347471,13.7221527 L2.37973754,13.8140956 C1.78356559,13.9836021 1.56630269,13.9608799 1.26764909,13.7623576 C0.868866745,13.4972775 0.844021149,13.1014268 0.984089457,12.6487814 L1.03659264,12.4946247 L1.10340552,12.3304154 L1.25365813,12.0072189 L1.43857632,11.6244628 L1.54433631,11.3862505 L1.584,11.276 L1.50753306,11.1928132 C0.480182468,10.0302489 -0.121647242,8.60215792 -0.192862868,7.08596566 L-0.2,6.78160509 C-0.2,2.85493349 3.3281312,-0.299469723 7.64894083,-0.299469723 Z" id="路径"></path>
            <path d="M14.5,4.99999995 C11.1434942,4.99999995 8.4,7.4868239 8.4,10.5854422 L8.40713386,10.8576053 C8.4688069,12.031989 8.92835593,13.1380849 9.70781262,14.0426747 L9.735,14.073 L9.66534542,14.2337025 L9.45791771,14.67129 L9.38171749,14.8439363 L9.32721975,14.9883436 C9.31924955,15.0118323 9.31166179,15.035475 9.30419553,15.0599369 C9.18215601,15.4597778 9.20437404,15.8186632 9.57500851,16.068442 C9.80647863,16.2244349 10.0284754,16.2329977 10.3423202,16.1685842 L10.5648032,16.1158198 L10.7383291,16.0663199 L11.7317163,15.7406831 L11.9221696,15.6881196 C11.9547202,15.6770646 11.9578045,15.664862 11.8919128,15.6363055 C12.700621,15.9867877 13.5867275,16.1708843 14.5,16.1708843 C17.8565058,16.1708843 20.6,13.6840604 20.6,10.5854422 C20.6,7.4868239 17.8565058,4.99999995 14.5,4.99999995 Z M14.5,6.19999995 C17.2186264,6.19999995 19.4,8.17729303 19.4,10.5854422 C19.4,12.9935912 17.2186264,14.9708843 14.5,14.9708843 C13.8446525,14.9708843 13.2086421,14.8557667 12.6189169,14.6358807 L12.3690899,14.5352597 C12.1927356,14.4588302 12.0679992,14.4302281 11.858918,14.4643172 L11.6841679,14.501871 C11.651699,14.5101665 11.617381,14.5194996 11.5809486,14.5298993 L11.3348547,14.6053298 L10.72,14.81 L10.7691413,14.7058695 C10.832338,14.5673807 10.8707039,14.4706677 10.9056274,14.361014 C11.0199436,14.0020808 11.0234109,13.6953719 10.7638022,13.4217866 C10.0153257,12.6330142 9.6,11.6373797 9.6,10.5854422 C9.6,8.17729303 11.7813736,6.19999995 14.5,6.19999995 Z" id="路径" transform="translate(14.500000, 10.603170) scale(-1, 1) translate(-14.500000, -10.603170) "></path>
            <g id="编组" transform="translate(4.000000, 4.000000)">
                <circle id="椭圆形" cx="1.5" cy="1" r="1"></circle>
                <circle id="椭圆形" cx="8.75" cy="5.55" r="1"></circle>
                <circle id="椭圆形" cx="11.75" cy="5.55" r="1"></circle>
                <circle id="椭圆形" cx="5.5" cy="1" r="1"></circle>
            </g>
        </g>
    </g>
</svg>
